X: 33781
T: Raven's Wing, The
R: reel
M: 4/4
K: Aminor
ABcd eA (3AAA|efdf eAcA|GABc dBGB|(3ddd ce dcBG|
ABcd eaag|aged (3efe cd|eAce dG (3Bcd|cAGB A3:|
aged (3efe ab|c'bag ed (3efg|agab c'e'd'b|c'bag a3 b|
aeed ecAc|ec (3dcB cBAc|eAce dG (3Bcd|cAGB A3:|
ABcd eA ~A2|eAfd eBcB|ABcd eAce|dBGB dcBG|
ABcd eA ~A2|eAfd edcd|e2 ae gece|1 dcBG A4:|2 dcBG ABcd||
|:e2 ~a2 agea|gede dBAB|G2 (3ABc dGec|gceg aged|
e2 ae gede|ae~e2 edcd|e2 ae gece|1 dcBG ABcd:|2 dcBG A3 f||

